build/assets/images/svg/icons/lk/personal_account/eye.svg

<svg width="24" height="24" viewBox="0 0 24 24" fill="none" xmlns="http://www.w3.org/2000/svg">
<path d="M4.29464 13.9828C4.58029 14.4555 4.42868 15.0702 3.95601 15.3559C3.48333 15.6415 2.86859 15.4899 2.58294 15.0172C2.17684 14.3452 1.90131 13.7662 1.7393 13.3924C1.50731 12.8571 1.54097 12.2545 1.82359 11.7498C2.25486 10.9797 3.34432 9.19934 5.02335 7.59968C6.69852 6.00369 9.05564 4.5 11.9997 4.5C14.9438 4.5 17.301 6.00369 18.9761 7.59968C20.6552 9.19933 21.7446 10.9797 22.1759 11.7498C22.4585 12.2545 22.4922 12.8571 22.2602 13.3924C22.0982 13.7662 21.8226 14.3452 21.4165 15.0172C21.1309 15.4899 20.5161 15.6415 20.0435 15.3559C19.5708 15.0702 19.4192 14.4555 19.7048 13.9828C20.0315 13.4423 20.2581 12.9749 20.3956 12.6644C19.9898 11.9493 19.0289 10.4123 17.5966 9.0477C16.1171 7.63816 14.2297 6.5 11.9997 6.5C9.76978 6.5 7.8824 7.63816 6.40292 9.0477C4.9706 10.4123 4.00964 11.9493 3.60389 12.6644C3.74137 12.9749 3.96802 13.4423 4.29464 13.9828Z" fill="#969BA8"/>
<path fill-rule="evenodd" clip-rule="evenodd" d="M11.9997 8C9.23831 8 6.99974 10.2386 6.99974 13C6.99974 15.7614 9.23831 18 11.9997 18C14.7612 18 16.9997 15.7614 16.9997 13C16.9997 10.2386 14.7612 8 11.9997 8ZM8.99974 13C8.99974 11.3431 10.3429 10 11.9997 10C13.6566 10 14.9997 11.3431 14.9997 13C14.9997 14.6569 13.6566 16 11.9997 16C10.3429 16 8.99974 14.6569 8.99974 13Z" fill="#969BA8"/>
</svg>

<svg width="24" height="24" fill="none" xmlns="http://www.w3.org/2000/svg"><path d="M4.295 13.983a1 1 0 01-1.712 1.034 13.783 13.783 0 01-.844-1.625 1.846 1.846 0 01.085-1.642c.43-.77 1.52-2.55 3.2-4.15C6.698 6.004 9.055 4.5 12 4.5s5.301 1.504 6.976 3.1c1.68 1.6 2.769 3.38 3.2 4.15.283.505.316 1.107.084 1.642-.162.374-.437.953-.844 1.625a1 1 0 11-1.711-1.034c.327-.54.553-1.008.69-1.319-.405-.715-1.366-2.252-2.798-3.616C16.117 7.638 14.23 6.5 12 6.5c-2.23 0-4.118 1.138-5.597 2.548-1.432 1.364-2.393 2.901-2.8 3.616.138.31.365.778.692 1.319z" fill="#969BA8"/><path fill-rule="evenodd" clip-rule="evenodd" d="M12 8a5 5 0 100 10 5 5 0 000-10zm-3 5a3 3 0 116 0 3 3 0 01-6 0z" fill="#969BA8"/></svg>
